en/_assets/wiki/svg/wysiwyg/tabs.svg

<svg xmlns="http://www.w3.org/2000/svg" xmlns:xlink="http://www.w3.org/1999/xlink" width="20" height="20" class="yc-icon ye-command-menu__item-icon" fill="currentColor" stroke="none" aria-hidden="true"><svg xmlns="http://www.w3.org/2000/svg" fill="none" viewBox="0 0 16 16"><path fill-rule="evenodd" clip-rule="evenodd" d="M5.25 3.5L4 3.5C3.17157 3.5 2.5 4.17157 2.5 5L2.5 11C2.5 11.8284 3.17157 12.5 4 12.5L12 12.5C12.8284 12.5 13.5 11.8284 13.5 11L13.5 7L10 7L6 7C5.80109 7 5.61032 6.92098 5.46967 6.78033C5.32902 6.63968 5.25 6.44891 5.25 6.25L5.25 3.5ZM6.75 3.5L9.25 3.5L9.25 5.5L6.75 5.5L6.75 3.5ZM10.75 3.5L12 3.5C12.8284 3.5 13.5 4.17157 13.5 5L13.5 5.5L10.75 5.5L10.75 3.5ZM15 5C15 3.34315 13.6569 2 12 2L4 2C2.34315 2 0.999999 3.34314 0.999999 5L0.999998 11C0.999998 12.6569 2.34314 14 4 14L12 14C13.6569 14 15 12.6569 15 11L15 5Z" fill="currentColor"></path></svg></svg>

<svg xmlns="http://www.w3.org/2000/svg" width="20" height="20" fill="currentColor" aria-hidden="true" class="yc-icon ye-command-menu__item-icon">
    <svg xmlns="http://www.w3.org/2000/svg" fill="none" viewBox="0 0 16 16">
        <path fill="currentColor" fill-rule="evenodd" d="M5.25 3.5H4A1.5 1.5 0 0 0 2.5 5v6A1.5 1.5 0 0 0 4 12.5h8a1.5 1.5 0 0 0 1.5-1.5V7H6a.75.75 0 0 1-.75-.75V3.5Zm1.5 0h2.5v2h-2.5v-2Zm4 0H12A1.5 1.5 0 0 1 13.5 5v.5h-2.75v-2ZM15 5a3 3 0 0 0-3-3H4a3 3 0 0 0-3 3v6a3 3 0 0 0 3 3h8a3 3 0 0 0 3-3V5Z" clip-rule="evenodd"/>
    </svg>
</svg>
